X:1
T:Choeur des chasseurs du Freischütz
T:C.M. von Weber
T:Choeur des chasseurs du Freischütz
C:C.M. von Weber
%%score ( 1 2 ) ( 3 4 )
L:1/8
Q:1/4=112
M:2/4
K:B
V:1 treble nm="2. Tenor"
V:2 treble 
V:3 bass nm="2. Bass"
V:4 bass 
V:1
 z3 F | B2 (B/F/) (B/c/) | d2 BB | c2 cc | (dc) BF | B2 (B/F/) (B/c/) | d2 BB | A2 cB | A2 z F | %9
w: Cha-|sseur, dans * les *|bois que la|vie a de|char- * mes! Prin-|temps des * fo- *|rêts, tu sou-|ris à le|voir. Il|
w: Quand|l'aube, ô * so- *|leil, fait le|jour dans ses|rou- * tes, Ses|yeux sont * plus *|vifs et ses|coups plus cer-|tains. Ra-|
 B2 (B/F/) (B/c/) | d2 BB | c2 cc | (dc) BF | B2 (B/F/) (B/c/) | d2 BB | A2 cB | A2 z c | d2 dd | %18
w: cherche, à * tra- *|vers les bou-|leaux et les|cha- * rmes, Ta|trace, ô * gi- *|bier, du ma-|tin jus- qu'au|soir. Voi-|là le plai-|
w: vins, dans * vos *|creux, et fo-|rêts, sous vos|voû- * tes, Il|traque et * les *|loups et les|cerfs et les|daims. Voi-|là le plai-|
 B2 BB | e2 ee | c2 cc | d2 dd | B2 BB | e2 ee | c2 z F | d2 dd | !>!e2 dd | c2 (d/c/) (B/c/) | %28
w: sir le plai-|sir, qu'il se|don- ne; et|libre, il se|sent plus vai-|llant, plus dis-|pos. Hal-|liers pleins de|bruit quand le|cor vibre * et *|
w: sir le plai-|sir, qu'il se|don- ne; et|libre, il n'a|point de re-|grets sous les|cieux. Au|bruit des chan-|sons quand le|cor vibre * et *|
 d2 BB | d2 dd |{f} e2 dd |{d} (cB/c/) dc | B3 F | FF/F/ FF/F/ | FF/F/ FF/F/ | B2 Fd | B2 Fd | %37
w: son- ne, Son|chant rend la|voix dès l'au-|rore * * aux é-|chos. Jo|ho tral la la la la|la la la la la la|la la la|la la la|
w: son- ne, Son|vin est plus|doux et son|coeur * * plus jo-|yeux. Jo|ho tral la la la la|la la la la la la|la la la|la la la|
{f} ec{f} ec |{f} ec{f} ec | B2 Fd | B2 Fd |{f} ec{f} ec |{f} ec{f} ec | dB/d/ !>!f2 | %44
w: la la la la|la la la la|la la la|la la la|la la la la|la la la la|la la la la|
w: la la la la|la la la la|la la la|la la la|la la la la|la la la la|la la la la|
 dB/d/ !>!f2 | dB/B/ Bd | !fermata!c4 | !>!B2 Fd | !>!B2 Fd |{f} ec{f} ec |{f} ec{f} ec | %51
w: la la la la|la la la la la|la|la la la|la la la|la la la la|la la la la|
w: la la la la|la la la la la|la|la la la|la la la|la la la la|la la la la|
 !>!B2 Fd | !>!B2 Fd |{f} ec{f} ec |{f} ec{f} ec | dB/d/ !>!f2 | dB/d/ !>!f2 | dB/B/ BB/B/ | B4 |] %59
w: la la la|la la la|la la la la|la la la la|la la la la|la la la la|la la la la la la|la|
w: la la la|la la la|la la la la|la la la la|la la la la|la la la la|la la la la la la|la|
V:2
 x3 F | F2 FF | F2 FF | A2 AA | BA BF | F2 FF | F2 FF | F2 AG | F2 z F | F2 FF | F2 FF | A2 AA | %12
 BA BF | F2 FF | F2 FF | F2 AG | F2 z A | A2 AA | G2 GG | G2 GG | A2 AA | A2 AA | G2 GG | G2 GG | %24
 A2 z F | B2 BB | B2 BB | A2 B/A/G/A/ | B2 FF | B2 BB | B2 BB | A2 AA | B3 F | FF/F/ FF/F/ | %34
 FF/F/ FF/F/ | F2 FB | F2 FB | AA AA | AA AA | F2 FB | F2 FB | AA AA | AA AA | FF/F/ A2 | %44
 FF/F/ A2 | BB/B/ BB | A4 | F2 FB | F2 FB | AA AA | AA AA | F2 FB | F2 FB | AA AA | AA AA | %55
 FF/F/ A2 | FF/F/ A2 | BB/B/ BB/B/ | B4 |] %59
V:3
 z3 F, | D,2 D, (D,/F,/) | B,2 D,D, | (F,C,) F,C, | (F,E,) D,F, | D,2 D, (D,/F,/) | B,2 D,F, | %7
w: Cha-|sseur, dans les *|bois que la|vie * a de|char- * mes! Prin-|temps des fo- *|rêts, tu sou-|
w: Quand|l'aube, ô so- *|leil, fait le|jour * dans ses|rou- * tes, Ses|yeux sont plus *|vifs et ses|
 F,2 C,^E, | F,2 z F, | D,2 D, (D,/F,/) | B,2 D,D, | (F,C,) F,C, | (F,E,) D,F, | D,2 D, (D,/F,/) | %14
w: ris à le|voir. Il|cherche, à tra- *|vers les bou-|leaux * et les|cha- * rmes, Ta|trace, ô gi- *|
w: coups plus cer-|tains. Ra-|vins, dans vos *|creux, et fo-|rêts, * sous vos|voû- * tes, Il|traque et les *|
 B,2 D,F, | F,2 C,^E, | F,2 z F, | F,2 F,F, | G,2 D,D, | E,2 E,E, | F,2 F,F, | F,2 F,F, | %22
w: bier, du ma-|tin jus- qu'au|soir. Voi-|là le plai-|sir le plai-|sir, qu'il se|don- ne; et|libre, il se|
w: loups et les|cerfs et les|daims. Voi-|là le plai-|sir le plai-|sir, qu'il se|don- ne; et|libre, il n'a|
 G,2 D,D, | E,2 CC | F,2 z F, | F,2 F,F, | !>!G,2 F,F, | F,2 F,F, | F,2 D,D, | F,2 F,F, | %30
w: sent plus vai-|llant, plus dis-|pos. Hal-|liers pleins de|bruit quand le|cor vibre et|son- ne, Son|chant rend la|
w: point de re-|grets sous les|cieux. Au|bruit des chan-|sons quand le|cor vibre et|son- ne, Son|vin est plus|
 G,2 F,F, | E,2 F,E, | D,3 F, | F,F,/F,/ F,F,/F,/ | F,F,/F,/ F,F,/F,/ | D,2 D,F, | D,2 D,D, | %37
w: voix dès l'au-|rore aux é-|chos. Jo|ho tral la la la la|la la la la la la|la la la|la la la|
w: doux et son|coeur plus jo-|yeux. Jo|ho tral la la la la|la la la la la la|la la la|la la la|
 C,E, C,E, | C,E, C,E, | D,2 D,F, | D,2 D,D, | C,E, C,E, | C,E, C,E, | D,D,/D,/ C,2 | %44
w: la la la la|la la la la|la la la|la la la|la la la la|la la la la|la la la la|
w: la la la la|la la la la|la la la|la la la|la la la la|la la la la|la la la la|
 D,D,/D,/ C,2 | D,D,/D,/ D,B,, | !fermata!C,4 | !>!D,2 D,F, | !>!D,2 D,D, | C,E, C,E, | C,E, C,E, | %51
w: la la la la|la la la la la|la|la la la|la la la|la la la la|la la la la|
w: la la la la|la la la la la|la|la la la|la la la|la la la la|la la la la|
 !>!D,2 D,F, | !>!D,2 D,D, | C,E, C,E, | C,E, C,E, | D,D,/D,/ C,2 | D,F,/B,/ C2 | %57
w: la la la|la la la|la la la la|la la la la|la la la la|la la la la|
w: la la la|la la la|la la la la|la la la la|la la la la|la la la la|
 B,D,/D,/ D,D,/D,/ | D,4 |] %59
w: la la la la la la|la|
w: la la la la la la|la|
V:4
 x3 F, | B,,2 B,,B,, | B,,2 B,,B,, | F,,2 F,,F,, | B,,F,, B,,F, | B,,2 B,,B,, | B,,2 B,,D, | %7
 C,2 C,C, | F,,2 z F, | B,,2 B,,B,, | B,,2 B,,B,, | F,,2 F,,F,, | B,,F,, B,,F, | B,,2 B,,B,, | %14
 B,,2 B,,D, | C,2 C,C, | F,,2 z F, | D,2 D,D, | G,,2 G,,G,, | C,2 C,C, | F,,2 F,,F,, | D,2 D,D, | %22
 G,,2 G,,G,, | C,2 C,C, | F,,2 z F,, | B,,2 B,,B,, | E,2 B,,B,, | F,,2 F,,F,, | B,,2 B,,B,, | %29
 B,,2 B,,B,, | E,2 B,,B,, | F,,2 F,,F,, | B,,3 F, | F,F,/F,/ F,F,/F,/ | F,F,/F,/ F,F,/F,/ | %35
 B,,2 B,,B,, | B,,2 B,,B,, | F,,F,, F,,F,, | F,,F,, F,,F,, | B,,2 B,,B,, | B,,2 B,,B,, | %41
 F,,F,, F,,F,, | F,,F,, F,,F,, | B,,B,,/B,,/ F,,2 | B,,B,,/B,,/ F,,2 | B,,B,,/B,,/ B,,B,, | F,,4 | %47
 B,,2 B,,B,, | B,,2 B,,B,, | F,,F,, F,,F,, | F,,F,, F,,F,, | B,,2 B,,B,, | B,,2 B,,B,, | %53
 F,,F,, F,,F,, | F,,F,, F,,F,, | B,,B,,/B,,/ F,,2 | B,,B,,/B,,/ F,,2 | B,,B,,/B,,/ B,,B,,/B,,/ | %58
 B,,4 |] %59

